X: 8
T: Donald Blue
R: reel
M: 4/4
L: 1/8
K: Dmaj
| dBAF A3B | dBAF E2D2 | dBAF A2FA | BcBB AFA :|
| ABde f3d | g3e fedB | ABde fded | B2dB BAFA :|


Tune 1175	Setting 14442

